icons/widgets/Til.svg

<path
	d="M0 5C0 3.93913 0.421427 2.92172 1.17157 2.17157C1.92172 1.42143 2.93913 1 4 1H28C29.0609 1 30.0783 1.42143 30.8284 2.17157C31.5786 2.92172 32 3.93913 32 5V21C32 22.0609 31.5786 23.0783 30.8284 23.8284C30.0783 24.5786 29.0609 25 28 25H8.828C8.29761 25.0001 7.78899 25.2109 7.414 25.586L1.708 31.292C1.56826 31.4321 1.3901 31.5276 1.19607 31.5664C1.00204 31.6052 0.800863 31.5855 0.617999 31.51C0.435134 31.4344 0.278804 31.3062 0.168795 31.1418C0.0587852 30.9773 4.20298e-05 30.7839 0 30.586V5Z"
	fill="white" />
<path d="M9.784 10.32H7V9H14.128V10.32H11.344V17.4H9.784V10.32Z" fill="black" />
<path d="M15.2987 9H16.8588V17.4H15.2987V9Z" fill="black" />
<path d="M19.1308 9H20.6908V16.08H25.0828V17.4H19.1308V9Z" fill="black" />

<path d="M0 5a4 4 0 0 1 4-4h24a4 4 0 0 1 4 4v16a4 4 0 0 1-4 4H8.828a2 2 0 0 0-1.414.586l-5.706 5.706A1 1 0 0 1 0 30.586V5Z" fill="#fff"/><path d="M9.784 10.32H7V9h7.128v1.32h-2.784v7.08h-1.56v-7.08Z"/><path d="M15.299 9h1.56v8.4h-1.56V9Z"/><path d="M19.13 9h1.56v7.08h4.393v1.32H19.13V9Z"/>
